X: 27694
T: Morgiana In Spain
R: jig
M: 6/8
K: Dmajor
d|F2G A2d|F2G A2d|B2B e2d|ced cBA|
F2G A2d|F2G A2d|F2e cBc|d2d d2:|
d|e2dc2f|d2d c2A|e2d c2B|A2A A2f|
e2d c2f|e2d c2f|efd cdB|ABG FGE|
F2G A2d|F2G A2d|B2B e2d|ced cBA|
F2G A2d|F2G A2d|F2e cBc|d2d d2||

